assets/logos/rbc.svg

<?xml version="1.0" encoding="utf-8"?>
<!-- Generator: Adobe Illustrator 14.0.0, SVG Export Plug-In . SVG Version: 6.00 Build 43363)  -->
<!DOCTYPE svg PUBLIC "-//W3C//DTD SVG 1.1//EN" "http://www.w3.org/Graphics/SVG/1.1/DTD/svg11.dtd">
<svg version="1.1" id="Layer_1" xmlns="http://www.w3.org/2000/svg" xmlns:xlink="http://www.w3.org/1999/xlink" x="0px" y="0px"
	 width="39.5px" height="52px" viewBox="0 0 39.5 52" enable-background="new 0 0 39.5 52" xml:space="preserve">
<path fill="#005DAA" d="M39.539,45.623c0,1.717-0.703,2.715-2.078,3.246c-5.344,2.059-11.672,3.119-17.69,3.119
	c-6.021,0-12.349-1.061-17.692-3.119C0.704,48.338,0,47.34,0,45.623V0.012h39.539V45.623z"/>
<path fill="#FFD200" d="M10.604,27.808c-5.475-3.418-7.281-4.931-7.437-7.173c-0.026-0.454,0.078-1.223,0.269-1.771L2.92,18.522
	c-0.412,0.658-0.675,1.523-0.675,2.316c0,1.296,0.413,2.276,0.922,3.059c0.769,1.184,1.578,1.929,3.572,3.425
	c2.148,1.611,3.614,3.492,4.458,5.462h0.305v-2.235c2.901,1.648,5.461,3.196,6.72,5.966h0.304
	C18.033,33.645,16.409,31.432,10.604,27.808"/>
<path fill="#FFD200" d="M35.822,36.519h-0.374c0-2.042-1.873-2.601-3.834-2.601h-6.132c0.198,1.008,0.289,2.187,0.138,3.301h-0.306
	c-0.567-4.592-3.161-6.864-6.789-9.301v2.092H18.22c-0.965-2.158-3.082-4.18-5.086-5.616c-0.533-0.38-1.088-0.774-1.635-1.163v2.251
	h-0.305c-0.85-2.234-2.393-3.901-4.594-5.888c-2.379-2.14-3.336-3.421-3.894-4.894c-0.338-0.892-0.432-1.613-0.445-2.592
	C2.24,10.357,3.127,8.775,4.229,8.185v0.848C3.683,9.756,3.4,10.675,3.398,11.606c-0.003,0.861,0.203,1.817,0.631,2.631
	c1.339,2.548,5.849,5.676,8.711,7.599c8.905,5.972,10.683,7.014,12.161,10.183c0.165,0.353,0.329,0.827,0.466,1.38
	c1.286-0.199,5.953-0.911,6.812-1.047c0.167-0.027,0.51-0.068,0.688-0.08c0.805-0.508,1.431-1.156,1.98-1.964l-3.41-0.265
	c-0.177,0.391-0.35,0.721-0.503,0.984h-0.28c0.094-0.346,0.175-0.688,0.246-1.025l-0.874-0.062v-0.188l0.945-0.117
	c0.18-0.965,0.267-1.879,0.284-2.732l-4.301-0.245c-0.021,0.442-0.025,0.857-0.01,1.244H26.67c-0.094-0.43-0.166-0.856-0.22-1.271
	l-0.942-0.056v-0.286l0.896-0.049c-0.126-1.139-0.134-2.2-0.089-3.113l-2.513-0.113c0.117,0.222,0.24,0.443,0.326,0.688
	c0.544,1.517,0.414,3.293,0.236,4.112h-0.305c-0.045-0.946-0.362-2.107-0.665-2.813c-0.695-1.639-2.254-3.089-4.87-4.769v2.094
	h-0.305c-0.869-2.75-3.035-4.281-6.254-5.934c-2.656-1.363-3.481-3.006-3.331-5.548l0.898,0.532c0.229,2.376,2.055,3.75,3.968,3.736
	c1.126-0.01,2.181-0.16,3.199-0.362c1.472-0.299,2.834-0.55,3.971-0.149v-1.403h-0.894c-0.32,0.275-0.968,0.594-1.921,0.611
	c-1.047,0.018-3.029-0.585-3.029-2.8c0-1.924,1.627-2.232,2.952-2.232c0.712,0,1.892-0.025,2.292-0.046
	c0.295-0.02,0.517-0.064,0.662-0.208c0.15-0.147,0.195-0.299,0.229-0.496c0.042-0.239,0.042-0.482,0.042-0.895V5.726H14.86v2.435
	l-2.325-0.885V6.693h1.112V5.726H9.504v-2.02H8.092c-0.754,0-1.625,0.53-1.688,1.555C6.347,6.244,6.789,7.073,7.802,7.073h0.181
	V8.25H7.802c-1.775,0-3.111-1.332-3.111-3.1c0-1.844,1.569-3.248,3.468-3.248h2.996v2.021H22.81V6.91
	c0,0.504-0.029,1.179-0.077,1.605C22.697,8.827,22.588,9.386,22,9.836c-0.357,0.27-0.893,0.379-1.761,0.383
	c-0.285,0.001-1.111-0.012-2.101-0.074c-1.328-0.085-1.706,0.429-1.76,0.905c-0.011,0.1-0.011,0.197,0.002,0.29
	c0.622-0.48,1.502-0.821,2.5-0.505c1.758,0.553,2.261,0.601,3.177-0.118l0.093,0.205c-0.1,0.153-0.275,0.373-0.532,0.568h0.849
	v4.602l2.644-1.586h7.424c0,0,3.136,1.639,3.651,1.909c0.456,0.24,0.635,0.53,0.705,0.955c0.061,0.355-0.033,0.805-0.206,1.093
	c-0.109,0.18-0.962,1.577-1.411,2.323c1.261,1.365,2.112,3.275,2.112,5.402c0,1.928-0.713,4.414-3.03,6.262
	c1.02,0.334,1.673,0.89,2.186,1.621L35.822,36.519z M19.271,11.738c-1.043-0.229-1.625-0.1-2.224,0.471
	c0.294,0.14,0.661,0.216,1.066,0.189C18.7,12.356,19.062,12.006,19.271,11.738 M18.67,18.369l2.938-1.761
	c-0.578-0.285-1.216-0.468-1.972-0.477c-1.013-0.018-2.722,0.446-3.547,0.575C16.458,16.957,17.768,17.795,18.67,18.369
	 M31.783,18.556l0.407-0.574l-0.63-0.839l0.105-0.187l1.771,0.955l-0.387,1.172c0.287,0.138,0.55,0.31,0.899,0.542l1.146-1.882
	l-2.967-1.55h-6.553l-5.32,3.2c0.998,0.694,1.92,1.444,2.573,2.2c1.424-2.075,3.929-3.396,6.41-3.396
	C30.048,18.198,30.992,18.285,31.783,18.556 M31.25,25.984c-0.036-0.979-0.157-1.865-0.322-2.646l-3.473-0.157
	c-0.237,1.057-0.395,2.088-0.467,3.03L31.25,25.984z M32.418,23.407c0.111,0.897,0.125,1.736,0.066,2.511l3.441-0.18
	c-0.088-0.782-0.311-1.521-0.643-2.199L32.418,23.407z M30.666,22.281c-0.36-1.243-0.789-2.106-1.015-2.512
	c-0.144-0.009-0.291-0.012-0.436-0.012c-0.243,0-0.486,0.031-0.721,0.056c-0.347,0.869-0.63,1.746-0.86,2.636L30.666,22.281z
	 M31.62,20.195c0.257,0.691,0.45,1.357,0.591,2l2.102-0.115C33.591,21.248,32.668,20.595,31.62,20.195 M35.489,29.07
	c0.246-0.599,0.403-1.174,0.45-1.902l-3.576-0.203c-0.163,1.002-0.429,1.873-0.715,2.586L35.489,29.07z M26.67,20.336
	c-1.197,0.536-2.023,1.265-2.761,2.311l2.448-0.128C26.445,21.432,26.588,20.709,26.67,20.336"/>
<path fill="#FFFFFF" d="M22.129,41.801c0.998-0.162,1.95-0.938,1.95-2.111c0-1.057-0.45-2.218-3.562-2.218h-5.254v0.085
	c0.159,0.049,0.412,0.178,0.577,0.338c0.356,0.351,0.475,0.87,0.489,1.562v7.863h4.353c2.394,0,4.127-0.911,4.127-3.006
	C24.81,42.613,23.485,41.89,22.129,41.801 M19.889,38.409c1.114,0,1.869,0.243,1.869,1.431c0,1.268-1.011,1.617-2.166,1.617h-0.995
	v-3.048H19.889z M20.002,46.39h-1.405v-4.022h1.341c1.842,0,2.548,0.551,2.548,1.93C22.485,45.789,21.562,46.39,20.002,46.39"/>
<path fill="#FFFFFF" d="M11.389,47.318h2.837l-3.622-4.629c1.451-0.389,2.538-1.184,2.538-2.627c0-1.693-1.015-2.591-3.665-2.591
	H3.995v0.085c0.203,0.07,0.428,0.201,0.577,0.346c0.383,0.379,0.498,0.957,0.498,1.737v7.679h2.275v-4.363h0.83L11.389,47.318z
	 M7.346,38.409h1.531c1.277,0,1.943,0.374,1.943,1.728c0,1.21-0.87,1.928-2.269,1.928H7.346V38.409z"/>
<path fill="#FFFFFF" d="M34.01,38.822c0.607,0.342,0.793,0.795,0.798,0.799c0.028,0.033,0.094,0.022,0.094,0.022l0.495-1.685
	c0,0-0.889-0.639-3.005-0.639c-3.202,0-5.599,1.613-5.599,5.143c0,3.977,2.855,5.01,5.374,5.01c2.341,0,3.263-0.746,3.263-0.746
	v-1.154c0,0-0.829,0.772-2.604,0.772c-1.463,0-3.617-0.67-3.66-3.938c-0.044-3.021,1.273-4.004,3.035-4.004
	C33.185,38.402,33.676,38.633,34.01,38.822"/>
</svg>

<?xml version="1.0" encoding="UTF-8" standalone="no"?>
<!DOCTYPE svg PUBLIC "-//W3C//DTD SVG 1.1//EN" "http://www.w3.org/Graphics/SVG/1.1/DTD/svg11.dtd">
<svg width="100%" height="100%" viewBox="0 0 80 80" version="1.1" xmlns="http://www.w3.org/2000/svg" xmlns:xlink="http://www.w3.org/1999/xlink" xml:space="preserve" xmlns:serif="http://www.serif.com/" style="fill-rule:evenodd;clip-rule:evenodd;stroke-linejoin:round;stroke-miterlimit:2;">
    <g transform="matrix(1.53846,0,0,1.53846,9.61538,0)">
        <path d="M39.539,45.623C39.539,47.34 38.836,48.338 37.461,48.869C32.117,50.928 25.789,51.988 19.771,51.988C13.75,51.988 7.422,50.927 2.079,48.869C0.704,48.338 0,47.34 0,45.623L0,0.012L39.539,0.012L39.539,45.623Z" style="fill:rgb(0,93,170);fill-rule:nonzero;"/>
    </g>
    <g transform="matrix(1.53846,0,0,1.53846,9.61538,0)">
        <path d="M10.604,27.808C5.129,24.39 3.323,22.877 3.167,20.635C3.141,20.181 3.245,19.412 3.436,18.864L2.92,18.522C2.508,19.18 2.245,20.045 2.245,20.838C2.245,22.134 2.658,23.114 3.167,23.897C3.936,25.081 4.745,25.826 6.739,27.322C8.887,28.933 10.353,30.814 11.197,32.784L11.502,32.784L11.502,30.549C14.403,32.197 16.963,33.745 18.222,36.515L18.526,36.515C18.033,33.645 16.409,31.432 10.604,27.808" style="fill:rgb(255,210,0);fill-rule:nonzero;"/>
    </g>
    <g transform="matrix(1.53846,0,0,1.53846,9.61538,0)">
        <path d="M35.822,36.519L35.448,36.519C35.448,34.477 33.575,33.918 31.614,33.918L25.482,33.918C25.68,34.926 25.771,36.105 25.62,37.219L25.314,37.219C24.747,32.627 22.153,30.355 18.525,27.918L18.525,30.01L18.22,30.01C17.255,27.852 15.138,25.83 13.134,24.394C12.601,24.014 12.046,23.62 11.499,23.231L11.499,25.482L11.194,25.482C10.344,23.248 8.801,21.581 6.6,19.594C4.221,17.454 3.264,16.173 2.706,14.7C2.368,13.808 2.274,13.087 2.261,12.108C2.24,10.357 3.127,8.775 4.229,8.185L4.229,9.033C3.683,9.756 3.4,10.675 3.398,11.606C3.395,12.467 3.601,13.423 4.029,14.237C5.368,16.785 9.878,19.913 12.74,21.836C21.645,27.808 23.423,28.85 24.901,32.019C25.066,32.372 25.23,32.846 25.367,33.399C26.653,33.2 31.32,32.488 32.179,32.352C32.346,32.325 32.689,32.284 32.867,32.272C33.672,31.764 34.298,31.116 34.847,30.308L31.437,30.043C31.26,30.434 31.087,30.764 30.934,31.027L30.654,31.027C30.748,30.681 30.829,30.339 30.9,30.002L30.026,29.94L30.026,29.752L30.971,29.635C31.151,28.67 31.238,27.756 31.255,26.903L26.954,26.658C26.933,27.1 26.929,27.515 26.944,27.902L26.67,27.902C26.576,27.472 26.504,27.046 26.45,26.631L25.508,26.575L25.508,26.289L26.404,26.24C26.278,25.101 26.27,24.04 26.315,23.127L23.802,23.014C23.919,23.236 24.042,23.457 24.128,23.702C24.672,25.219 24.542,26.995 24.364,27.814L24.059,27.814C24.014,26.868 23.697,25.707 23.394,25.001C22.699,23.362 21.14,21.912 18.524,20.232L18.524,22.326L18.219,22.326C17.35,19.576 15.184,18.045 11.965,16.392C9.309,15.029 8.484,13.386 8.634,10.844L9.532,11.376C9.761,13.752 11.587,15.126 13.5,15.112C14.626,15.102 15.681,14.952 16.699,14.75C18.171,14.451 19.533,14.2 20.67,14.601L20.67,13.198L19.776,13.198C19.456,13.473 18.808,13.792 17.855,13.809C16.808,13.827 14.826,13.224 14.826,11.009C14.826,9.085 16.453,8.777 17.778,8.777C18.49,8.777 19.67,8.752 20.07,8.731C20.365,8.711 20.587,8.667 20.732,8.523C20.882,8.376 20.927,8.224 20.961,8.027C21.003,7.788 21.003,7.545 21.003,7.132L21.003,5.726L14.86,5.726L14.86,8.161L12.535,7.276L12.535,6.693L13.647,6.693L13.647,5.726L9.504,5.726L9.504,3.706L8.092,3.706C7.338,3.706 6.467,4.236 6.404,5.261C6.347,6.244 6.789,7.073 7.802,7.073L7.983,7.073L7.983,8.25L7.802,8.25C6.027,8.25 4.691,6.918 4.691,5.15C4.691,3.306 6.26,1.902 8.159,1.902L11.155,1.902L11.155,3.923L22.81,3.923L22.81,6.91C22.81,7.414 22.781,8.089 22.733,8.515C22.697,8.827 22.588,9.386 22,9.836C21.643,10.106 21.107,10.215 20.239,10.219C19.954,10.22 19.128,10.207 18.138,10.145C16.81,10.06 16.432,10.574 16.378,11.05C16.367,11.15 16.367,11.247 16.38,11.34C17.002,10.86 17.882,10.519 18.88,10.835C20.638,11.388 21.141,11.436 22.057,10.717L22.15,10.922C22.05,11.075 21.875,11.295 21.618,11.49L22.467,11.49L22.467,16.092L25.111,14.506L32.535,14.506C32.535,14.506 35.671,16.145 36.186,16.415C36.642,16.655 36.821,16.945 36.891,17.37C36.952,17.725 36.858,18.175 36.685,18.463C36.576,18.643 35.723,20.04 35.274,20.786C36.535,22.151 37.386,24.061 37.386,26.188C37.386,28.116 36.673,30.602 34.356,32.45C35.376,32.784 36.029,33.34 36.542,34.071L35.822,36.519ZM19.271,11.738C18.228,11.509 17.646,11.638 17.047,12.209C17.341,12.349 17.708,12.425 18.113,12.398C18.7,12.356 19.062,12.006 19.271,11.738M18.67,18.369L21.608,16.608C21.03,16.323 20.392,16.14 19.636,16.131C18.623,16.113 16.914,16.577 16.089,16.706C16.458,16.957 17.768,17.795 18.67,18.369M31.783,18.556L32.19,17.982L31.56,17.143L31.665,16.956L33.436,17.911L33.049,19.083C33.336,19.221 33.599,19.393 33.948,19.625L35.094,17.743L32.127,16.193L25.574,16.193L20.254,19.393C21.252,20.087 22.174,20.837 22.827,21.593C24.251,19.518 26.756,18.197 29.237,18.197C30.048,18.198 30.992,18.285 31.783,18.556M31.25,25.984C31.214,25.005 31.093,24.119 30.928,23.338L27.455,23.181C27.218,24.238 27.06,25.269 26.988,26.211L31.25,25.984ZM32.418,23.407C32.529,24.304 32.543,25.143 32.484,25.918L35.925,25.738C35.837,24.956 35.614,24.217 35.282,23.539L32.418,23.407ZM30.666,22.281C30.306,21.038 29.877,20.175 29.651,19.769C29.507,19.76 29.36,19.757 29.215,19.757C28.972,19.757 28.729,19.788 28.494,19.813C28.147,20.682 27.864,21.559 27.634,22.449L30.666,22.281ZM31.62,20.195C31.877,20.886 32.07,21.552 32.211,22.195L34.313,22.08C33.591,21.248 32.668,20.595 31.62,20.195M35.489,29.07C35.735,28.471 35.892,27.896 35.939,27.168L32.363,26.965C32.2,27.967 31.934,28.838 31.648,29.551L35.489,29.07ZM26.67,20.336C25.473,20.872 24.647,21.601 23.909,22.647L26.357,22.519C26.445,21.432 26.588,20.709 26.67,20.336" style="fill:rgb(255,210,0);fill-rule:nonzero;"/>
    </g>
    <g transform="matrix(1.53846,0,0,1.53846,9.61538,0)">
        <path d="M22.129,41.801C23.127,41.639 24.079,40.863 24.079,39.69C24.079,38.633 23.629,37.472 20.517,37.472L15.263,37.472L15.263,37.557C15.422,37.606 15.675,37.735 15.84,37.895C16.196,38.246 16.315,38.765 16.329,39.457L16.329,47.32L20.682,47.32C23.076,47.32 24.809,46.409 24.809,44.314C24.81,42.613 23.485,41.89 22.129,41.801M19.889,38.409C21.003,38.409 21.758,38.652 21.758,39.84C21.758,41.108 20.747,41.457 19.592,41.457L18.597,41.457L18.597,38.409L19.889,38.409ZM20.002,46.39L18.597,46.39L18.597,42.368L19.938,42.368C21.78,42.368 22.486,42.919 22.486,44.298C22.485,45.789 21.562,46.39 20.002,46.39" style="fill:white;fill-rule:nonzero;"/>
    </g>
    <g transform="matrix(1.53846,0,0,1.53846,9.61538,0)">
        <path d="M11.389,47.318L14.226,47.318L10.604,42.689C12.055,42.3 13.142,41.505 13.142,40.062C13.142,38.369 12.127,37.471 9.477,37.471L3.995,37.471L3.995,37.556C4.198,37.626 4.423,37.757 4.572,37.902C4.955,38.281 5.07,38.859 5.07,39.639L5.07,47.318L7.345,47.318L7.345,42.955L8.175,42.955L11.389,47.318ZM7.346,38.409L8.877,38.409C10.154,38.409 10.82,38.783 10.82,40.137C10.82,41.347 9.95,42.065 8.551,42.065L7.346,42.065L7.346,38.409Z" style="fill:white;fill-rule:nonzero;"/>
    </g>
    <g transform="matrix(1.53846,0,0,1.53846,9.61538,0)">
        <path d="M34.01,38.822C34.617,39.164 34.803,39.617 34.808,39.621C34.836,39.654 34.902,39.643 34.902,39.643L35.397,37.958C35.397,37.958 34.508,37.319 32.392,37.319C29.19,37.319 26.793,38.932 26.793,42.462C26.793,46.439 29.648,47.472 32.167,47.472C34.508,47.472 35.43,46.726 35.43,46.726L35.43,45.572C35.43,45.572 34.601,46.344 32.826,46.344C31.363,46.344 29.209,45.674 29.166,42.406C29.122,39.385 30.439,38.402 32.201,38.402C33.185,38.402 33.676,38.633 34.01,38.822" style="fill:white;fill-rule:nonzero;"/>
    </g>
</svg>
